!!!OTL: Graserin und Reiter
!!!OTL-incipit:Ich sach mir einen blauen Storchen
!!!ARE: Europa, Mitteleuropa, Deutschland
!!!YOR: 7, S. 150
!!    1575 gedruckt (vor)
!!!SCT: Q0149J
!!!TXL: @@DE
!!!YEM: Copyright 1995, estate of Helmut Schaffrath.
**kern	**text
*ICvox	*
!! Mixed meters:  6/4; 3/2
*M3/2	*
*k[b-]	*
*d:	*
!LO:TX:a:t=23	!
{4a	Jch
=1	=1
2a	sach
4a	mi
(<4a	ei-
4cc)	.
4b-	-nen
=2	=2
*M3/2	*
2a	blau-
4a	-en
4g	Stor-
4g}	-chen
{4g	auf
=3	=3
*M3/2	*
2dd	ei-
2cc	-ner
4b-	Wie-
4g	-se
=4	=4
*M3/2	*
(2a	gehn;
4d	.
2a)}	.
{4a	ich
=5	=5
*M3/2	*
2a	meint
2b-	es
4cc	sei
4a	mein
=6	=6
*M3/2	*
2.g	Buh-
2d}	-le
{4e	und
=7	=7
*M3/2	*
2f	hieß
2f	ihn
4e	stil-
4e	-le
=8	=8
(2d	stehn.
4A	.
2d;)}	.
==	==
!!!AGN: Ballade, Verfuehrung, Verlassen des Elternhauses
!! Blaustorchenweise. Zusammenhang zur Balladenmelodie angenommen.
!!!ONB: ESAC (Essen Associative Code) Database: BALLADE
!!!AMT: irregular
!!!AIN: vox
!!!EED: Helmut Schaffrath
!!!EEV: 1.0
!!!source: Deutsche Volkslieder mit ihren Melodien Balladen. Herausgegeben vom Deutschen Volksliedarchiv. Siebenterer Band. Freiburg/Breisgau 1982.
!!!page: 150
!!!ENC: Anna Maria Matuszewska
!!!EEV: 2025/03/07
*-	*-
